X:1
T:Hornpipe
L:1/8
M:2/2
I:linebreak $
K:G
V:1 treble 
V:1
 dc | BdcA BGAF | G2 g2 g2 ag | fgag fedc | c4 B2 dc | BdcA BGAF | G2 b2 b2 ag |$ fage fde^c | %8
 d2 d2 d2 :: dc | Bdfa bgdB | c2 a2 a2 cB | Aefg afdc | B2 g2 g2 e2 |$ fafd gbge | fafd gedc | %16
 Bgec BGAF | G2 G2 G2 :| %18
